io/bag-add-sharp.svg

<svg xmlns="http://www.w3.org/2000/svg" viewBox="0 0 512 512" height="1em" width="1em">
  <path d="M460 160h-88v-12A116.13 116.13 0 0 0 258.89 32h-5.78A116.13 116.13 0 0 0 140 148v12H52a4 4 0 0 0-4 4v300a16 16 0 0 0 16 16h384a16 16 0 0 0 16-16V164a4 4 0 0 0-4-4Zm-280-11c0-41.84 33.41-76.56 75.25-77A76.08 76.08 0 0 1 332 148v12H180Zm156 187h-64v64h-32v-64h-64v-32h64v-64h32v64h64Z"/>
</svg>

<svg xmlns="http://www.w3.org/2000/svg" viewBox="0 0 512 512" height="1em" width="1em">
  <path d="M460,160H372V148A116.13,116.13,0,0,0,258.89,32c-1,0-1.92,0-2.89,0s-1.93,0-2.89,0A116.13,116.13,0,0,0,140,148v12H52a4,4,0,0,0-4,4V464a16,16,0,0,0,16,16H448a16,16,0,0,0,16-16V164A4,4,0,0,0,460,160ZM180,149c0-41.84,33.41-76.56,75.25-77A76.08,76.08,0,0,1,332,148v12H180ZM336,336H272v64H240V336H176V304h64V240h32v64h64Z"/>
</svg>
